Obsidian-SemiLight/actions/22s/archive-extract.svg

<svg viewBox="0 0 22 22" xmlns="http://www.w3.org/2000/svg"><path d="m4 3v16h8v-1h-7v-14h12v9h1v-10zm11.5 9.792969-.207031.207031-3.292969 3.292969.707031.707031 2.292969-2.292969v4.292969h1v-4.292969l2.292969 2.292969.707031-.707031-3.292969-3.292969z" fill="#4d4d4d"/></svg>

<svg xmlns="http://www.w3.org/2000/svg" viewBox="0 0 22 22">
  <defs id="defs3051">
    <style type="text/css" id="current-color-scheme">
      .ColorScheme-Text {
        color:#4d4d4d;
      }
      </style>
  </defs>
 <path 
    style="fill:currentColor;fill-opacity:1;stroke:none" 
    d="M 4 3 L 4 19 L 12 19 L 12 18 L 5 18 L 5 4 L 17 4 L 17 13 L 18 13 L 18 3 L 4 3 z M 15.5 12.792969 L 15.292969 13 L 12 16.292969 L 12.707031 17 L 15 14.707031 L 15 19 L 16 19 L 16 14.707031 L 18.292969 17 L 19 16.292969 L 15.707031 13 L 15.5 12.792969 z "
    class="ColorScheme-Text"
    />  
</svg>
